!!!COM: Haydn, Franz Joseph
!!!OPR: Symphony in C Minor
!!!OTL: Affettuoso 
!!!OMV: 2
!!!SCT: H I:95
!!!SCA: Thematisch-bibliographisches Werkevererzeichnis (A. van Hoboken)
!!!YOR: Dover Edition
!!!EED: Frances Bennion
!!!ENC: Frances Bennion
!!!CDT: 1732/3/31/-1809/5/31/
!!!OCY: Österreich
!!!YEC: Copyright (c) 1994, 2000 Center for Computer Assisted Research in the Humanities
!!!YEM: Rights to all derivative editions reserved.
!!!YEM: Refer to licensing agreement for further details.
!!!YEN: United States of America
**kern	**kern	**kern	**kern	**kern	**kern	**kern	**kern	**kern	**kern	**kern	**kern
*k[b-e-a-]	*k[b-e-a-]	*k[b-e-a-]	*k[b-e-a-]	*k[b-e-a-]	*k[b-e-a-]	*k[b-e-a-]	*k[b-e-a-]	*k[]	*k[]	*k[b-e-a-]	*k[b-e-a-]
*E-:	*E-:	*E-:	*E-:	*E-:	*E-:	*E-:	*E-:	*E-:	*E-:	*E-:	*E-:
*clefF	*clefC3	*clefF4	*clefF4	*clefF	*clefF	*clefF4	*clefF4	*clefF	*clefF	*clefF	*clefF
*M6/8	*M6/8	*M6/8	*M6/8	*M6/8	*M6/8	*M6/8	*M6/8	*M6/8	*M6/8	*M6/8	*M6/8
*tb48	*tb48	*tb48	*tb48	*tb48	*tb48	*tb48	*tb48	*tb48	*tb48	*tb48	*tb48
=0-	=0-	=0-	=0-	=0-	=0-	=0-	=0-	=0-	=0-	=0-	=0-
2r	3..r	3..r	3..r	2r	2r	2r	2r	2r	2r	3..r	3..r
8r	.	.	.	8r	8r	8r	8r	8r	8r	.	.
.	24r	24r	24r	.	.	.	.	.	.	24r	24r
8r	8r	8r	8r	8r	8r	8r	8r	8r	8r	8b-	8r
=1	=1	=1	=1	=1	=1	=1	=1	=1	=1	=1	=1
2.r	8e-	8e-	8e-	2.r	2.r	2.r	2.r	2.r	2.r	8ee-	8g
.	8r	8r	8r	.	.	.	.	.	.	8ee-	8r
.	8b-	8e-	8e-	.	.	.	.	.	.	32ff	8g
.	.	.	.	.	.	.	.	.	.	32ee-	.
.	.	.	.	.	.	.	.	.	.	32dd	.
.	.	.	.	.	.	.	.	.	.	32ee-	.
.	8b-	8d	8d	.	.	.	.	.	.	8ff	8f
.	8r	8r	8r	.	.	.	.	.	.	8dd	8r
.	8f	8d	8d	.	.	.	.	.	.	8b-	8f
=2	=2	=2	=2	=2	=2	=2	=2	=2	=2	=2	=2
2.r	8g	8c	8c	2.r	2.r	2.r	2.r	2.r	2.r	8ee-	8e-
.	8r	8r	8r	.	.	.	.	.	.	8cc	8r
.	4c	8F	8F	.	.	.	.	.	.	8a	4e-
.	.	4B-	4B-	.	.	.	.	.	.	4b-	.
.	8B-	.	.	.	.	.	.	.	.	.	8d
.	8G	8G	8G	.	.	.	.	.	.	8b	[8e-
=3	=3	=3	=3	=3	=3	=3	=3	=3	=3	=3	=3
2.r	4.A-	4.A-	4.A-	2.r	2.r	2.r	2.r	2.r	2.r	8cc	8e-]
.	.	.	.	.	.	.	.	.	.	8a-	8e
.	.	.	.	.	.	.	.	.	.	8f	4f
.	4G	4G	4G	.	.	.	.	.	.	4b-	.
.	.	.	.	.	.	.	.	.	.	.	8B-
.	8c	8c	8c	.	.	.	.	.	.	8g	8e-
=4	=4	=4	=4	=4	=4	=4	=4	=4	=4	=4	=4
2r	8A-	8A-	8A-	2r	2r	2r	2r	2r	2r	8a-	8c
.	8r	8r	8r	.	.	.	.	.	.	8f	8r
.	8F	8BB-	8BB-	.	.	.	.	.	.	8d	8A-
.	8E-	8E-	8E-	.	.	.	.	.	.	8e-	8G
8r	8r	8r	8r	8r	8r	8r	8r	8r	8r	8r	8r
8r	32cc	32c	32c	8r	8r	8r	8r	8r	8r	8r	8r
.	32b-	32B-	32B-	.	.	.	.	.	.	.	.
.	32a	32A	32A	.	.	.	.	.	.	.	.
.	32b-	32B-	32B-	.	.	.	.	.	.	.	.
=5	=5	=5	=5	=5	=5	=5	=5	=5	=5	=5	=5
2.r	8a-	8A-	8A-	2.r	2.r	2.r	2.r	2.r	2.r	8r	8r
.	8f	8F	8F	.	.	.	.	.	.	8bb-	8b-
.	8d	8D	8D	.	.	.	.	.	.	8bb-	8b-
.	4e-	8E-	8E-	.	.	.	.	.	.	8aa-	[4.b-
.	.	8e-	8e-	.	.	.	.	.	.	8gg	.
.	8d	8d	8d	.	.	.	.	.	.	32gg	.
.	.	.	.	.	.	.	.	.	.	32ff	.
.	.	.	.	.	.	.	.	.	.	32ee-	.
.	.	.	.	.	.	.	.	.	.	32ff	.
=6	=6	=6	=6	=6	=6	=6	=6	=6	=6	=6	=6
2.r	8g	8c	8c	2.r	2.r	2.r	2.r	2.r	2.r	8ee-	8b-]
.	8e-	8f	8f	.	.	.	.	.	.	8cc	8a
.	8A	8A	8A	.	.	.	.	.	.	8ff	8cc
.	4B-	4B-	4B-	.	.	.	.	.	.	8ee-	4f
.	.	.	.	.	.	.	.	.	.	8dd	.
.	8g	8g	8r	.	.	.	.	.	.	32ff	8b-
.	.	.	.	.	.	.	.	.	.	32ee-	.
.	.	.	.	.	.	.	.	.	.	32dd	.
.	.	.	.	.	.	.	.	.	.	32ee-	.
=7	=7	=7	=7	=7	=7	=7	=7	=7	=7	=7	=7
2.r	4f	4f	4r	2.r	2.r	2.r	2.r	2.r	2.r	8dd	4a-
.	.	.	.	.	.	.	.	.	.	8b-	.
.	32f	32F	32F	.	.	.	.	.	.	8b-	32a-
.	32e-	32E-	32E-	.	.	.	.	.	.	.	32g
.	32d	32D	32D	.	.	.	.	.	.	.	32f
.	32e-	32E-	32E-	.	.	.	.	.	.	.	32g
.	8d	8D	8D	.	.	.	.	.	.	4b-	8f
.	8B-	8BB-	8BB-	.	.	.	.	.	.	.	8d
.	8g	8g	8r	.	.	.	.	.	.	32ee-	8b-
.	.	.	.	.	.	.	.	.	.	32bb-	.
.	.	.	.	.	.	.	.	.	.	32gg	.
.	.	.	.	.	.	.	.	.	.	32ee-	.
=8	=8	=8	=8	=8	=8	=8	=8	=8	=8	=8	=8
2.r	4f	4f	4r	2.r	2.r	2.r	2.r	2.r	2.r	8dd	4a-
.	.	.	.	.	.	.	.	.	.	8b-	.
.	32e-	32E-	32E-	.	.	.	.	.	.	8b-	32g
.	32g	32G	32G	.	.	.	.	.	.	.	32b-
.	32f	32F	32F	.	.	.	.	.	.	.	32a-
.	32e-	32E-	32E-	.	.	.	.	.	.	.	32g
.	8d	8D	8D	.	.	.	.	.	.	4b-	8f
.	8B-	8BB-	8BB-	.	.	.	.	.	.	.	8d
.	8f	8A-	8A-	.	.	.	.	.	.	16cc	8d
.	.	.	.	.	.	.	.	.	.	16b-	.
=9	=9	=9	=9	=9	=9	=9	=9	=9	=9	=9	=9
2.r	8g	8G	8G	2.r	2.r	2.r	2.r	2.r	2.r	8b-	8e-
.	8r	8r	8r	.	.	.	.	.	.	8ee-	8r
.	8B-	8D-	8D-	.	.	.	.	.	.	8G	8e-
.	8A-	8C	8C	.	.	.	.	.	.	8A-	4e-
.	4r	8AA-	8AA-	.	.	.	.	.	.	8cc	.
.	.	8AA-	8AA-	.	.	.	.	.	.	32b-	32d-
.	.	.	.	.	.	.	.	.	.	32a-	32c
.	.	.	.	.	.	.	.	.	.	32g	32B-
.	.	.	.	.	.	.	.	.	.	32f	32A-
=10	=10	=10	=10	=10	=10	=10	=10	=10	=10	=10	=10
2r	8B-	4BB-	4BB-	2r	2r	2r	2r	2r	2r	4e-	4G
.	8e-	.	.	.	.	.	.	.	.	.	.
.	8d	8BB-	8BB-	.	.	.	.	.	.	16.f	16.A-
.	.	.	.	.	.	.	.	.	.	32e-	32G
.	8e-	8E-	8E-	.	.	.	.	.	.	8e-	8G
8r	8r	8EE-	8EE-	8r	8r	8r	8r	8r	8r	8r	8r
8r	8r	8B-	8r	8r	8r	8r	8r	8r	8r	8r	8r
=11	=11	=11	=11	=11	=11	=11	=11	=11	=11	=11	=11
2.r	2.r	8e-	2.r	2.r	2.r	2.r	2.r	2.r	2.r	4r	4r
.	.	8e-	.	.	.	.	.	.	.	.	.
.	.	32f	.	.	.	.	.	.	.	8.ee-	8g
.	.	32e-	.	.	.	.	.	.	.	.	.
.	.	32d	.	.	.	.	.	.	.	.	.
.	.	32e-	.	.	.	.	.	.	.	.	.
.	.	8f	.	.	.	.	.	.	.	.	[4.a-
.	.	.	.	.	.	.	.	.	.	16dd	.
.	.	8d	.	.	.	.	.	.	.	[4ff	.
.	.	8B-	.	.	.	.	.	.	.	.	.
=12	=12	=12	=12	=12	=12	=12	=12	=12	=12	=12	=12
2.r	2.r	8e-	2.r	2.r	2.r	2.r	2.r	2.r	2.r	16ff]	16a-]
.	.	.	.	.	.	.	.	.	.	16ee-	16g
.	.	8c	.	.	.	.	.	.	.	[6..gg	[6..ee-
.	.	8A	.	.	.	.	.	.	.	.	.
.	.	4B-	.	.	.	.	.	.	.	.	.
.	.	.	.	.	.	.	.	.	.	48gg]	48ee-]
.	.	.	.	.	.	.	.	.	.	16ff	16dd
.	.	.	.	.	.	.	.	.	.	[4aa-	[4ff
.	.	8B	.	.	.	.	.	.	.	.	.
=13	=13	=13	=13	=13	=13	=13	=13	=13	=13	=13	=13
2.r	2.r	8c	2.r	2.r	2.r	2.r	2.r	2.r	2.r	16aa-]	16ff]
.	.	.	.	.	.	.	.	.	.	16gg	16ee-
.	.	8A-	.	.	.	.	.	.	.	8.ccc	8.aa-
.	.	8F	.	.	.	.	.	.	.	.	.
.	.	.	.	.	.	.	.	.	.	32bb-	32gg
.	.	.	.	.	.	.	.	.	.	32aa-	32ff
.	.	4B-	.	.	.	.	.	.	.	16gg	16ee-
.	.	.	.	.	.	.	.	.	.	16ff	16dd
.	.	.	.	.	.	.	.	.	.	8.aa-	8.ff
.	.	8c	.	.	.	.	.	.	.	.	.
.	.	.	.	.	.	.	.	.	.	16gg	16ee-
=14	=14	=14	=14	=14	=14	=14	=14	=14	=14	=14	=14
2.r	2.r	8A-	2.r	2.r	2.r	2.r	2.r	2.r	2.r	16gg	8cc
.	.	.	.	.	.	.	.	.	.	32ff	.
.	.	.	.	.	.	.	.	.	.	32r	.
.	.	8B-	.	.	.	.	.	.	.	16ff	8g
.	.	.	.	.	.	.	.	.	.	32ee-	.
.	.	.	.	.	.	.	.	.	.	32r	.
.	.	8B-	.	.	.	.	.	.	.	16ee-	8f
.	.	.	.	.	.	.	.	.	.	32dd	.
.	.	.	.	.	.	.	.	.	.	32r	.
.	.	8E-	.	.	.	.	.	.	.	8ee-	8g
.	.	8E-	.	.	.	.	.	.	.	8r	4r
.	.	8r	.	.	.	.	.	.	.	8B-	.
=15	=15	=15	=15	=15	=15	=15	=15	=15	=15	=15	=15
2.r	8B-	8E-	8E-	2.r	2.r	2.r	2.r	2.r	2.r	24G	8e- 8G
.	.	.	.	.	.	.	.	.	.	24B-	.
.	.	.	.	.	.	.	.	.	.	24e-	.
.	8r	8r	8r	.	.	.	.	.	.	24g	8r
.	.	.	.	.	.	.	.	.	.	24b-	.
.	.	.	.	.	.	.	.	.	.	24dd	.
.	8B- 8E-	8E-	8E-	.	.	.	.	.	.	24ee-	8B- 8g
.	.	.	.	.	.	.	.	.	.	24b-	.
.	.	.	.	.	.	.	.	.	.	24gg	.
.	8D 8B-	8D	8D	.	.	.	.	.	.	24ee	8B- 8f
.	.	.	.	.	.	.	.	.	.	24ff	.
.	.	.	.	.	.	.	.	.	.	24gg	.
.	8r	8r	8r	.	.	.	.	.	.	24ff	8r
.	.	.	.	.	.	.	.	.	.	24ee-	.
.	.	.	.	.	.	.	.	.	.	24dd	.
.	8d	8D	8D	.	.	.	.	.	.	24cc	8f 8B-
.	.	.	.	.	.	.	.	.	.	24b-	.
.	.	.	.	.	.	.	.	.	.	24dd	.
=16	=16	=16	=16	=16	=16	=16	=16	=16	=16	=16	=16
2.r	8c	8C	8C	2.r	2.r	2.r	2.r	2.r	2.r	24dd	8B- 8e-
.	.	.	.	.	.	.	.	.	.	24ee-	.
.	.	.	.	.	.	.	.	.	.	24gg	.
.	8r	8r	8r	.	.	.	.	.	.	24ee-	8r
.	.	.	.	.	.	.	.	.	.	24cc	.
.	.	.	.	.	.	.	.	.	.	24b-	.
.	8A	8F	8F	.	.	.	.	.	.	24a	8e- 8c
.	.	.	.	.	.	.	.	.	.	24ff	.
.	.	.	.	.	.	.	.	.	.	24a	.
.	8F	8BB-	8BB-	.	.	.	.	.	.	24b-	8d 8B-
.	.	.	.	.	.	.	.	.	.	24cc	.
.	.	.	.	.	.	.	.	.	.	24a	.
.	8r	8r	8r	.	.	.	.	.	.	24b-	8r
.	.	.	.	.	.	.	.	.	.	24cc	.
.	.	.	.	.	.	.	.	.	.	24dd	.
.	8G	8GG	8GG	.	.	.	.	.	.	24ee-	8e-
.	.	.	.	.	.	.	.	.	.	24b	.
.	.	.	.	.	.	.	.	.	.	24cc	.
=17	=17	=17	=17	=17	=17	=17	=17	=17	=17	=17	=17
2.r	8A-	8AA-	8AA-	2.r	2.r	2.r	2.r	2.r	2.r	24b	8c 8e-
.	.	.	.	.	.	.	.	.	.	24dd	.
.	.	.	.	.	.	.	.	.	.	24cc	.
.	8r	8r	8r	.	.	.	.	.	.	24g	8r
.	.	.	.	.	.	.	.	.	.	24b-	.
.	.	.	.	.	.	.	.	.	.	24a-	.
.	8A-	8A-	8A-	.	.	.	.	.	.	24f	8B- 8d
.	.	.	.	.	.	.	.	.	.	24a-	.
.	.	.	.	.	.	.	.	.	.	24cc	.
.	8G	8G	8G	.	.	.	.	.	.	24cc	8B- 8e-
.	.	.	.	.	.	.	.	.	.	24a	.
.	.	.	.	.	.	.	.	.	.	24b-	.
.	8r	8r	8r	.	.	.	.	.	.	24ee-	8r
.	.	.	.	.	.	.	.	.	.	24dd	.
.	.	.	.	.	.	.	.	.	.	24cc	.
.	8G	8GG	8GG	.	.	.	.	.	.	24b-	8e-
.	.	.	.	.	.	.	.	.	.	24a-	.
.	.	.	.	.	.	.	.	.	.	24g	.
=18	=18	=18	=18	=18	=18	=18	=18	=18	=18	=18	=18
2.r	8A-	8AA-	8AA-	2.r	2.r	2.r	2.r	2.r	2.r	24f	8c
.	.	.	.	.	.	.	.	.	.	24a-	.
.	.	.	.	.	.	.	.	.	.	24cc	.
.	8r	8r	8r	.	.	.	.	.	.	24ff	8r
.	.	.	.	.	.	.	.	.	.	24aa-	.
.	.	.	.	.	.	.	.	.	.	24ccc	.
.	8F	8BB-	8BB-	.	.	.	.	.	.	24ccc	8f 8A-
.	.	.	.	.	.	.	.	.	.	24bb-	.
.	.	.	.	.	.	.	.	.	.	24dd	.
.	8G	8E-	8E-	.	.	.	.	.	.	8ee-	8G 8e-
.	4r	8r	4r	.	.	.	.	.	.	4r	4r
.	.	24B-	.	.	.	.	.	.	.	.	.
.	.	24c	.	.	.	.	.	.	.	.	.
.	.	24B-	.	.	.	.	.	.	.	.	.
=19	=19	=19	=19	=19	=19	=19	=19	=19	=19	=19	=19
2.r	8d	24A-	8BB-	2.r	2.r	2.r	2.r	2.r	2.r	8r	8r
.	.	24G	.	.	.	.	.	.	.	.	.
.	.	24F	.	.	.	.	.	.	.	.	.
.	8r	24E-	8r	.	.	.	.	.	.	8bb-	8b-
.	.	24D	.	.	.	.	.	.	.	.	.
.	.	24C	.	.	.	.	.	.	.	.	.
.	8f	24BB-	8D	.	.	.	.	.	.	8bb-	8b-
.	.	24C	.	.	.	.	.	.	.	.	.
.	.	24D	.	.	.	.	.	.	.	.	.
.	8e-	24E-	8E-	.	.	.	.	.	.	8aa-	4.b-
.	.	24G	.	.	.	.	.	.	.	.	.
.	.	24B-	.	.	.	.	.	.	.	.	.
.	8r	24e-	8r	.	.	.	.	.	.	8gg	.
.	.	24f	.	.	.	.	.	.	.	.	.
.	.	24e-	.	.	.	.	.	.	.	.	.
.	8B-	24d	8D	.	.	.	.	.	.	8ff	.
.	.	24e-	.	.	.	.	.	.	.	.	.
.	.	24d	.	.	.	.	.	.	.	.	.
=20	=20	=20	=20	=20	=20	=20	=20	=20	=20	=20	=20
2.r	8g	24c	8C	2.r	2.r	2.r	2.r	2.r	2.r	8ee-	8b-
.	.	24d	.	.	.	.	.	.	.	.	.
.	.	24e-	.	.	.	.	.	.	.	.	.
.	8e-	24f	8F	.	.	.	.	.	.	8cc	8a
.	.	24F	.	.	.	.	.	.	.	.	.
.	.	24G	.	.	.	.	.	.	.	.	.
.	8A	24A	8AA	.	.	.	.	.	.	8ff	8cc
.	.	24B-	.	.	.	.	.	.	.	.	.
.	.	24c	.	.	.	.	.	.	.	.	.
.	8B-	8B-	8BB-	.	.	.	.	.	.	8ee-	8f
.	8r	8r	4r	.	.	.	.	.	.	8dd	8r
.	8g	8g	.	.	.	.	.	.	.	24dd	8b-
.	.	.	.	.	.	.	.	.	.	24ee-	.
.	.	.	.	.	.	.	.	.	.	24ff	.
=21	=21	=21	=21	=21	=21	=21	=21	=21	=21	=21	=21
2.r	8f	8f	4r	2.r	2.r	2.r	2.r	2.r	2.r	24ee-	8a-
.	.	.	.	.	.	.	.	.	.	24dd	.
.	.	.	.	.	.	.	.	.	.	24cc	.
.	8r	8r	.	.	.	.	.	.	.	24b-	8r
.	.	.	.	.	.	.	.	.	.	24b-	.
.	.	.	.	.	.	.	.	.	.	24b-	.
.	24e-	24E-	24E-	.	.	.	.	.	.	24b-	24g
.	24g	24G	24G	.	.	.	.	.	.	24bb-	24b-
.	24e-	24E-	24E-	.	.	.	.	.	.	24b-	24g
.	24d	24D	24D	.	.	.	.	.	.	24bb-	24f
.	24B-	24BB-	24BB-	.	.	.	.	.	.	24b-	24d
.	24B-	24BB-	24BB-	.	.	.	.	.	.	24bb-	24d
.	8B-	8BB-	8BB-	.	.	.	.	.	.	24b-	8d
.	.	.	.	.	.	.	.	.	.	24bb-	.
.	.	.	.	.	.	.	.	.	.	24b-	.
.	8g	8g	8r	.	.	.	.	.	.	24ee-	8b-
.	.	.	.	.	.	.	.	.	.	24gg	.
.	.	.	.	.	.	.	.	.	.	24ee-	.
=22	=22	=22	=22	=22	=22	=22	=22	=22	=22	=22	=22
2.r	8f	8f	4r	2.r	2.r	2.r	2.r	2.r	2.r	24ee-	8a-
.	.	.	.	.	.	.	.	.	.	24dd	.
.	.	.	.	.	.	.	.	.	.	24cc	.
.	8r	8r	.	.	.	.	.	.	.	24b-	8r
.	.	.	.	.	.	.	.	.	.	24b-	.
.	.	.	.	.	.	.	.	.	.	24b-	.
.	24e-	24E-	24E-	.	.	.	.	.	.	24b-	24g
.	24g	24G	24G	.	.	.	.	.	.	24bb-	24b-
.	24e-	24E-	24E-	.	.	.	.	.	.	24b-	24g
.	24d	24D	24D	.	.	.	.	.	.	24bb-	24f
.	24B-	24BB-	24BB-	.	.	.	.	.	.	24b-	24d
.	24B-	24BB-	24BB-	.	.	.	.	.	.	24bb-	24d
.	8B-	8BB-	8BB-	.	.	.	.	.	.	24b-	8d
.	.	.	.	.	.	.	.	.	.	24bb-	.
.	.	.	.	.	.	.	.	.	.	24b-	.
.	8f	8A-	8A-	.	.	.	.	.	.	24b-	8d
.	.	.	.	.	.	.	.	.	.	24cc-	.
.	.	.	.	.	.	.	.	.	.	24cc	.
=23	=23	=23	=23	=23	=23	=23	=23	=23	=23	=23	=23
2.r	8e-	8G	8G	2.r	2.r	2.r	2.r	2.r	2.r	24dd-	8e-
.	.	.	.	.	.	.	.	.	.	24dd	.
.	.	.	.	.	.	.	.	.	.	24ee-	.
.	8r	8r	8r	.	.	.	.	.	.	24ff	8r
.	.	.	.	.	.	.	.	.	.	24dd	.
.	.	.	.	.	.	.	.	.	.	24ee-	.
.	8e-	8D-	8D-	.	.	.	.	.	.	24ee-	8e-
.	.	.	.	.	.	.	.	.	.	24ff	.
.	.	.	.	.	.	.	.	.	.	24gg	.
.	4A-	8C	8C	.	.	.	.	.	.	24bb-	4e-
.	.	.	.	.	.	.	.	.	.	24gg	.
.	.	.	.	.	.	.	.	.	.	24aa-	.
.	.	8AA-	8AA-	.	.	.	.	.	.	24ccc	.
.	.	.	.	.	.	.	.	.	.	24gg	.
.	.	.	.	.	.	.	.	.	.	24aa-	.
.	8A-	8AA-	8AA-	.	.	.	.	.	.	24ccc	24e-
.	.	.	.	.	.	.	.	.	.	24aa-	24c
.	.	.	.	.	.	.	.	.	.	24ff	24A-
=24	=24	=24	=24	=24	=24	=24	=24	=24	=24	=24	=24
2.r	8B-	8BB-	8BB-	2.r	2.r	2.r	2.r	2.r	2.r	24ee-	8G
.	.	.	.	.	.	.	.	.	.	24bb-	.
.	.	.	.	.	.	.	.	.	.	24gg	.
.	8r	8r	8r	.	.	.	.	.	.	24ee-	8r
.	.	.	.	.	.	.	.	.	.	24b-	.
.	.	.	.	.	.	.	.	.	.	24g	.
.	8F	8BB-	8BB-	.	.	.	.	.	.	24a-	8A- 8d
.	.	.	.	.	.	.	.	.	.	24f	.
.	.	.	.	.	.	.	.	.	.	24d	.
.	8G	8E-	8E-	.	.	.	.	.	.	8e-	8e- 8G
.	4r	8EE-	8EE-	.	.	.	.	.	.	4r	4r
.	.	24B-	8r	.	.	.	.	.	.	.	.
.	.	24c	.	.	.	.	.	.	.	.	.
.	.	24B-	.	.	.	.	.	.	.	.	.
=25	=25	=25	=25	=25	=25	=25	=25	=25	=25	=25	=25
2.r	8B-	8BB-	8BB-	2.r	2.r	2.r	2.r	2.r	2.r	24ee-	8G
.	.	.	.	.	.	.	.	.	.	24bb-	.
.	.	.	.	.	.	.	.	.	.	24gg	.
.	8r	8r	8r	.	.	.	.	.	.	24ee-	8r
.	.	.	.	.	.	.	.	.	.	24b-	.
.	.	.	.	.	.	.	.	.	.	24g	.
.	8F	8BB-	8BB-	.	.	.	.	.	.	24a-	8A- 8d
.	.	.	.	.	.	.	.	.	.	24f	.
.	.	.	.	.	.	.	.	.	.	24d	.
.	8G	8E-	8E-	.	.	.	.	.	.	8e-	8G 8e-
.	4r	8EE-	8EE-	.	.	.	.	.	.	8r	4r
.	.	8r	8r	.	.	.	.	.	.	8b-	.
=26	=26	=26	=26	=26	=26	=26	=26	=26	=26	=26	=26
2.r	[2.B-	4.E-	4.E-	2.r	2.r	2.r	2.r	2.r	2.r	8ee-	4.g- 4.B-
.	.	.	.	.	.	.	.	.	.	8ee-	.
.	.	.	.	.	.	.	.	.	.	32ff	.
.	.	.	.	.	.	.	.	.	.	32ee-	.
.	.	.	.	.	.	.	.	.	.	32dd	.
.	.	.	.	.	.	.	.	.	.	32ee-	.
.	.	4D	4D	.	.	.	.	.	.	8ff	4.f 4.B-
.	.	.	.	.	.	.	.	.	.	8dd	.
.	.	8D-	8D-	.	.	.	.	.	.	8b-	.
=27	=27	=27	=27	=27	=27	=27	=27	=27	=27	=27	=27
2.r	4B-]	4C	4C	2.r	2.r	2.r	2.r	2.r	2.r	8ee-	4B- 4e-
.	.	.	.	.	.	.	.	.	.	8e-	.
.	8A	8C-	8C-	.	.	.	.	.	.	32a-	8A 8e-
.	.	.	.	.	.	.	.	.	.	32g-	.
.	.	.	.	.	.	.	.	.	.	32f	.
.	.	.	.	.	.	.	.	.	.	32e-	.
.	8B-	4BB-	4BB-	.	.	.	.	.	.	8d	8B- 8d
.	8r	.	.	.	.	.	.	.	.	8b-	8r
.	8b-	8B-	8B-	.	.	.	.	.	.	32cc-	32cc-
.	.	.	.	.	.	.	.	.	.	32b-	32b-
.	.	.	.	.	.	.	.	.	.	32a-	32a-
.	.	.	.	.	.	.	.	.	.	32b-	32b-
=28	=28	=28	=28	=28	=28	=28	=28	=28	=28	=28	=28
2.r	8cc-	8c-	8c-	2.r	2.r	2.r	2.r	2.r	2.r	8cc-	8cc-
.	8a-	8A-	8A-	.	.	.	.	.	.	8a-	8a-
.	8f	8F	8F	.	.	.	.	.	.	8f	8f
.	8d-	8D-	8D-	.	.	.	.	.	.	8d-	8d-
.	8A-	8C-	8C-	.	.	.	.	.	.	8ee-	8f
.	8B-	8BB-	8BB-	.	.	.	.	.	.	8dd-	8g-
=29	=29	=29	=29	=29	=29	=29	=29	=29	=29	=29	=29
2.r	8e-	8C-	8C-	2.r	2.r	2.r	2.r	2.r	2.r	8cc-	8a-
.	8d-	8D-	8D-	.	.	.	.	.	.	8b-	8g-
.	8c-	8D-	8D-	.	.	.	.	.	.	32b-	8f
.	.	.	.	.	.	.	.	.	.	32a-	.
.	.	.	.	.	.	.	.	.	.	32g-	.
.	.	.	.	.	.	.	.	.	.	32a-	.
.	4B-	4GG-	4GG-	.	.	.	.	.	.	8g-	8g-
.	.	.	.	.	.	.	.	.	.	8r	4r
.	8r	8r	8r	.	.	.	.	.	.	32cc-	.
.	.	.	.	.	.	.	.	.	.	32b-	.
.	.	.	.	.	.	.	.	.	.	32a	.
.	.	.	.	.	.	.	.	.	.	32b-	.
=30	=30	=30	=30	=30	=30	=30	=30	=30	=30	=30	=30
8r	8r	8r	8r	8r	8r	8r	8r	8r	8r	8bb-	8r
8bb-	8g-	8G-	8G-	8bb-	8b-	8B-	8BB-	8gg	8g	8bb- 8b-	8g-
8bb-	8e-	8E-	8E-	8bb-	8b-	8B-	8BB-	8gg	8g	8bb- 8b-	8e-
4bb-	8d	8D	8D	4bb-	4b-	4B-	4BB-	4gg	4g	4bb- 4b-	8d
.	8B-	8BB-	8BB-	.	.	.	.	.	.	.	8B-
8r	8r	8r	8r	8r	8r	8r	8r	8r	8r	32cc-	8r
.	.	.	.	.	.	.	.	.	.	32b-	.
.	.	.	.	.	.	.	.	.	.	32a	.
.	.	.	.	.	.	.	.	.	.	32b-	.
=31	=31	=31	=31	=31	=31	=31	=31	=31	=31	=31	=31
8r	8r	8r	8r	8r	8r	8r	8r	8r	8r	8bb-	8r
8bb-	8g-	8G-	8G-	8bb-	8b-	8B-	8BB-	8gg	8g	8bb- 8b-	8g-
8bb-	8e-	8E-	8E-	8bb-	8b-	8B-	8BB-	8gg	8g	8bb- 8b-	8e-
4bb-	8d	8D	8D	4bb-	4b-	4B-	4BB-	4gg	4g	4bb- 4b-	8d
.	8B-	8BB-	8BB-	.	.	.	.	.	.	.	8B-
8r	8g-	8r	8r	8r	8r	8r	8r	8r	8r	32ff	8b-
.	.	.	.	.	.	.	.	.	.	32ee-	.
.	.	.	.	.	.	.	.	.	.	32dd	.
.	.	.	.	.	.	.	.	.	.	32ee-	.
=32	=32	=32	=32	=32	=32	=32	=32	=32	=32	=32	=32
2.r	8f	2.r	2.r	2.r	2.r	2.r	2.r	2.r	2.r	8dd	8a-
.	8r	.	.	.	.	.	.	.	.	8dd	8r
.	8e-	.	.	.	.	.	.	.	.	32dd-	8g-
.	.	.	.	.	.	.	.	.	.	32cc-	.
.	.	.	.	.	.	.	.	.	.	32b-	.
.	.	.	.	.	.	.	.	.	.	32cc-	.
.	8d	.	.	.	.	.	.	.	.	8b-	8f
.	4r	.	.	.	.	.	.	.	.	8b-	4r
.	.	.	.	.	.	.	.	.	.	8r	.
=33	=33	=33	=33	=33	=33	=33	=33	=33	=33	=33	=33
2.r	4r	2.r	2.r	2.r	2.r	2.r	2.r	2.r	2.r	4r	4r
.	8g-	.	.	.	.	.	.	.	.	32ff-	8b-
.	.	.	.	.	.	.	.	.	.	32ee-	.
.	.	.	.	.	.	.	.	.	.	32dd	.
.	.	.	.	.	.	.	.	.	.	32ee-	.
.	8a-	.	.	.	.	.	.	.	.	8ff-	8cc-
.	8r	.	.	.	.	.	.	.	.	8ff-	8r
.	8f	.	.	.	.	.	.	.	.	32ee-	8a-
.	.	.	.	.	.	.	.	.	.	32dd	.
.	.	.	.	.	.	.	.	.	.	32cc	.
.	.	.	.	.	.	.	.	.	.	32dd	.
=34	=34	=34	=34	=34	=34	=34	=34	=34	=34	=34	=34
2.r	8g-	4r	4r	2.r	2.r	2.r	2.r	2.r	2.r	8ee-	8b-
.	8r	.	.	.	.	.	.	.	.	8ee-	8r
.	8B-	8G	8G	.	.	.	.	.	.	8dd-	8f-
.	8A-	8A-	8A-	.	.	.	.	.	.	8cc-	8e-
.	8A-	8A-	8A-	.	.	.	.	.	.	8cc-	8e-
.	8r	8r	8r	.	.	.	.	.	.	32b-	8r
.	.	.	.	.	.	.	.	.	.	32a-	.
.	.	.	.	.	.	.	.	.	.	32g-	.
.	.	.	.	.	.	.	.	.	.	32f	.
=35	=35	=35	=35	=35	=35	=35	=35	=35	=35	=35	=35
2.r	4B-	4.BB-	4.BB-	2.r	2.r	2.r	2.r	2.r	2.r	4e-	4g-
.	8A-	.	.	.	.	.	.	.	.	16f	16d
.	.	.	.	.	.	.	.	.	.	16e-	16e-
.	4G-	8E-	8E-	.	.	.	.	.	.	8e-	8e-
.	.	8EE-	8EE-	.	.	.	.	.	.	8r	4r
.	8r	8r	8r	.	.	.	.	.	.	32cc-	.
.	.	.	.	.	.	.	.	.	.	32b-	.
.	.	.	.	.	.	.	.	.	.	32a	.
.	.	.	.	.	.	.	.	.	.	32b-	.
=36	=36	=36	=36	=36	=36	=36	=36	=36	=36	=36	=36
8r	8r	8r	8r	8r	8r	8r	8r	8r	8r	8bb-	8r
8bb-	8g-	8G-	8G-	8bb-	8b-	8B-	8BB-	8gg	8g	8bb- 8b-	8g-
8bb-	8e-	8E-	8E-	8bb-	8b-	8B-	8BB-	8gg	8g	8bb- 8b-	8e-
4bb-	8d	8D	8D	4bb-	4b-	4B-	4BB-	4gg	4g	4bb- 4b-	8d
.	8B-	8BB-	8BB-	.	.	.	.	.	.	.	8B-
8r	8r	8r	8r	8r	8r	8r	8r	8r	8r	32cc-	8r
.	.	.	.	.	.	.	.	.	.	32b-	.
.	.	.	.	.	.	.	.	.	.	32a	.
.	.	.	.	.	.	.	.	.	.	32b-	.
=37	=37	=37	=37	=37	=37	=37	=37	=37	=37	=37	=37
8r	8r	8r	8r	8r	8r	8r	8r	8r	8r	8bb-	8r
8bb-	8g-	8G-	8G-	8bb-	8b-	8B-	8BB-	8gg	8g	8bb- 8b-	8g-
8bb-	8e-	8E-	8E-	8bb-	8b-	8B-	8BB-	8gg	8g	8bb- 8b-	8e-
4bb-	8d	8D	8D	4bb-	4b-	4B-	4BB-	4gg	4g	4b- 4bb-	8d
.	8B-	8BB-	8BB-	.	.	.	.	.	.	.	8B-
8r	8g-	8r	8r	8r	8r	8r	8r	8r	8r	32ff	8b-
.	.	.	.	.	.	.	.	.	.	32ee-	.
.	.	.	.	.	.	.	.	.	.	32dd	.
.	.	.	.	.	.	.	.	.	.	32ee-	.
=38	=38	=38	=38	=38	=38	=38	=38	=38	=38	=38	=38
2.r	8f	2.r	2.r	2.r	2.r	2.r	2.r	2.r	2.r	8dd	8a-
.	8r	.	.	.	.	.	.	.	.	8dd	8r
.	8e-	.	.	.	.	.	.	.	.	32dd-	8g-
.	.	.	.	.	.	.	.	.	.	32cc-	.
.	.	.	.	.	.	.	.	.	.	32b-	.
.	.	.	.	.	.	.	.	.	.	32cc-	.
.	8d	.	.	.	.	.	.	.	.	8b-	8f
.	4r	.	.	.	.	.	.	.	.	8b-	4r
.	.	.	.	.	.	.	.	.	.	8r	.
=39	=39	=39	=39	=39	=39	=39	=39	=39	=39	=39	=39
2.r	8c	2.r	2.r	2.r	2.r	2.r	2.r	2.r	2.r	8a	8e-
.	3..r	.	.	.	.	.	.	.	.	8a	3..r
.	.	.	.	.	.	.	.	.	.	4.r	.
.	.	.	.	.	.	.	.	.	.	8B-	.
.	24r	.	.	.	.	.	.	.	.	.	24r
=40	=40	=40	=40	=40	=40	=40	=40	=40	=40	=40	=40
2.r	4F	4BB-	4BB-	2.r	2.r	2.r	2.r	2.r	2.r	8a-	4A- 4d
.	.	.	.	.	.	.	.	.	.	8a-	.
.	8r	8r	8r	.	.	.	.	.	.	8d	8r
.	4F	4BB-	4BB-	.	.	.	.	.	.	8cc-	4A- 4d
.	.	.	.	.	.	.	.	.	.	8cc-	.
.	8r	8r	8r	.	.	.	.	.	.	8f	8r
=41	=41	=41	=41	=41	=41	=41	=41	=41	=41	=41	=41
2.r	4F	4BB-	4BB-	2.r	2.r	2.r	2.r	2.r	2.r	8dd	4A- 4d
.	.	.	.	.	.	.	.	.	.	8dd	.
.	2r	2r	2r	.	.	.	.	.	.	4.r	2r
.	.	.	.	.	.	.	.	.	.	8b-	.
=42	=42	=42	=42	=42	=42	=42	=42	=42	=42	=42	=42
2.r	8e-	8e-	8e-	2.r	2.r	2.r	2.r	2.r	2.r	8ee-	8g
.	8r	8r	8r	.	.	.	.	.	.	8ee-	8r
.	8b-	8e-	8e-	.	.	.	.	.	.	32ff	8g
.	.	.	.	.	.	.	.	.	.	32ee-	.
.	.	.	.	.	.	.	.	.	.	32dd	.
.	.	.	.	.	.	.	.	.	.	32ee-	.
.	8b-	8d	8d	.	.	.	.	.	.	8ff	8f
.	8r	8r	8r	.	.	.	.	.	.	8dd	8r
.	8f	8d	8d	.	.	.	.	.	.	8b-	8f
=43	=43	=43	=43	=43	=43	=43	=43	=43	=43	=43	=43
2.r	8g	8c	8c	2.r	2.r	2.r	2.r	2.r	2.r	8ee-	8e-
.	8r	8r	8r	.	.	.	.	.	.	8cc	8r
.	4c	8F	8F	.	.	.	.	.	.	8a	4e-
.	.	4B-	4B-	.	.	.	.	.	.	4b-	.
.	8B-	.	.	.	.	.	.	.	.	.	8d
.	8G	8G	8G	.	.	.	.	.	.	8b	[8e-
=44	=44	=44	=44	=44	=44	=44	=44	=44	=44	=44	=44
2.r	4.A-	4.A-	4.A-	2.r	2.r	2.r	2.r	2.r	2.r	8cc	8e-]
.	.	.	.	.	.	.	.	.	.	8a-	8e
.	.	.	.	.	.	.	.	.	.	8f	4f
.	4G	4G	4G	.	.	.	.	.	.	4b-	.
.	.	.	.	.	.	.	.	.	.	.	8B-
.	8c	8c	8c	.	.	.	.	.	.	8g	8e-
=45	=45	=45	=45	=45	=45	=45	=45	=45	=45	=45	=45
2.r	8A-	8A-	8A-	2.r	2.r	2.r	2.r	2.r	2.r	8a-	8c
.	8r	8r	8r	.	.	.	.	.	.	8f	8r
.	8F	8BB-	8BB-	.	.	.	.	.	.	8d	8A-
.	8E-	8E-	8E-	.	.	.	.	.	.	8e-	8G
.	4r	4r	4r	.	.	.	.	.	.	8r	8r
.	.	.	.	.	.	.	.	.	.	8b-	8b-
=46	=46	=46	=46	=46	=46	=46	=46	=46	=46	=46	=46
8eee-	8g 8B-	8E-	8E-	8gg	8b-	8e-	8e-	8ee	8cc	32ee-	32ee-
.	.	.	.	.	.	.	.	.	.	32b-	32b-
.	.	.	.	.	.	.	.	.	.	32a-	32a-
.	.	.	.	.	.	.	.	.	.	32b-	32b-
8r	8r	8r	8r	8r	8r	8r	8r	8r	8r	32g	32g
.	.	.	.	.	.	.	.	.	.	32b-	32b-
.	.	.	.	.	.	.	.	.	.	32f	32f
.	.	.	.	.	.	.	.	.	.	32b-	32b-
8bb-	8B- 8g	8E-	8E-	8gg	8b-	8e-	8e-	8ee	8cc	32e-	32e-
.	.	.	.	.	.	.	.	.	.	32g	32g
.	.	.	.	.	.	.	.	.	.	32b-	32b-
.	.	.	.	.	.	.	.	.	.	32ee-	32ee-
8bb-	8B- 8f	8D	8D	8ff	8b-	8d	8d	8dd	8g	32ff	32ff
.	.	.	.	.	.	.	.	.	.	32gg	32gg
.	.	.	.	.	.	.	.	.	.	32ee-	32ee-
.	.	.	.	.	.	.	.	.	.	32ff	32ff
8r	8r	8r	8r	8r	8r	8r	8r	8r	8r	32dd	32dd
.	.	.	.	.	.	.	.	.	.	32ee-	32ee-
.	.	.	.	.	.	.	.	.	.	32cc	32cc
.	.	.	.	.	.	.	.	.	.	32dd	32dd
8bb-	8f 8B-	8D	8D	8ff	8b-	8d	8d	8dd	8g	32b-	32b-
.	.	.	.	.	.	.	.	.	.	32dd	32dd
.	.	.	.	.	.	.	.	.	.	32cc	32cc
.	.	.	.	.	.	.	.	.	.	32b-	32b-
=47	=47	=47	=47	=47	=47	=47	=47	=47	=47	=47	=47
8bb-	8B- 8e-	8C	8C	8ee-	8b-	8c	8c	8cc	8cc	32ee-	32ee-
.	.	.	.	.	.	.	.	.	.	32ff	32ff
.	.	.	.	.	.	.	.	.	.	32gg	32gg
.	.	.	.	.	.	.	.	.	.	32ff	32ff
8r	8r	8r	8r	8r	8r	8r	8r	8r	8r	32ee-	32ee-
.	.	.	.	.	.	.	.	.	.	32dd	32dd
.	.	.	.	.	.	.	.	.	.	32cc	32cc
.	.	.	.	.	.	.	.	.	.	32b-	32b-
8aa	8e- 8c	8F	8F	8ee-	8a	8e-	8A	8dd	8dd	32a	32a
.	.	.	.	.	.	.	.	.	.	32g	32g
.	.	.	.	.	.	.	.	.	.	32f	32f
.	.	.	.	.	.	.	.	.	.	32e-	32e-
8bb-	8B- 8d	8BB-	8BB-	8dd	8b-	8d	8B-	8dd	8g	32d	32d
.	.	.	.	.	.	.	.	.	.	32B-	32B-
.	.	.	.	.	.	.	.	.	.	32c	32c
.	.	.	.	.	.	.	.	.	.	32d	32d
8r	8r	8r	8r	8r	8r	8r	8r	8r	8r	32e-	32e-
.	.	.	.	.	.	.	.	.	.	32f	32f
.	.	.	.	.	.	.	.	.	.	32g	32g
.	.	.	.	.	.	.	.	.	.	32a	32a
8eee-	8e- 8G	8G	8G	8ee-	16b-	8e-	8G	8cc	8cc	16b-	16b-
.	.	.	.	.	16b	.	.	.	.	16b	16b
=48	=48	=48	=48	=48	=48	=48	=48	=48	=48	=48	=48
8ccc	8A- 8e-	8A-	8A-	8ee-	8cc	8c	8A-	8cc	8cc	32b	32b
.	.	.	.	.	.	.	.	.	.	32cc	32cc
.	.	.	.	.	.	.	.	.	.	32ee-	32ee-
.	.	.	.	.	.	.	.	.	.	32cc	32cc
8r	8r	8r	8r	8r	8r	8r	8r	8r	8r	32g	32g
.	.	.	.	.	.	.	.	.	.	32a-	32a-
.	.	.	.	.	.	.	.	.	.	32cc	32cc
.	.	.	.	.	.	.	.	.	.	32a-	32a-
8ccc	8A- 8d	8A-	8A-	8ff	8dd	8d	8A-	8dd	8dd	32e	32e
.	.	.	.	.	.	.	.	.	.	32f	32f
.	.	.	.	.	.	.	.	.	.	32a-	32a-
.	.	.	.	.	.	.	.	.	.	32cc	32cc
8bb-	8G 8e-	8G	8G	8gg	8ee-	8e-	8G	8ee	8cc	32b-	32b-
.	.	.	.	.	.	.	.	.	.	32dd	32dd
.	.	.	.	.	.	.	.	.	.	32ee-	32ee-
.	.	.	.	.	.	.	.	.	.	32ff	32ff
8r	8r	8r	8r	8r	8r	8r	8r	8r	8r	32gg	32gg
.	.	.	.	.	.	.	.	.	.	32ff	32ff
.	.	.	.	.	.	.	.	.	.	32ee-	32ee-
.	.	.	.	.	.	.	.	.	.	32dd	32dd
8bb-	8B- 8e-	8GG	8GG	8ee-	8b-	8B-	8G	8cc	8cc	32cc	32cc
.	.	.	.	.	.	.	.	.	.	32b-	32b-
.	.	.	.	.	.	.	.	.	.	32a-	32a-
.	.	.	.	.	.	.	.	.	.	32g	32g
=49	=49	=49	=49	=49	=49	=49	=49	=49	=49	=49	=49
8aa-	8c	8AA-	8AA-	8ccc	8f	8c	8A-	8cc	8cc	32f	32f
.	.	.	.	.	.	.	.	.	.	32b	32b
.	.	.	.	.	.	.	.	.	.	32cc	32cc
.	.	.	.	.	.	.	.	.	.	32b	32b
8r	8r	8r	8r	8r	8r	8r	8r	8r	8r	32cc	32cc
.	.	.	.	.	.	.	.	.	.	32g	32g
.	.	.	.	.	.	.	.	.	.	32a-	32a-
.	.	.	.	.	.	.	.	.	.	32g	32g
8ff	8A- 8F	8BB-	8BB-	8dd	8a-	8F	8BB-	8g	8g	32a-	32a-
.	.	.	.	.	.	.	.	.	.	32d	32d
.	.	.	.	.	.	.	.	.	.	32e-	32f
.	.	.	.	.	.	.	.	.	.	32d	32d
8ee-	8E- 8G	8E-	8E-	8ee-	8g	8G	8E-	8cc	8cc	8e-	8e-
8r	4r	8r	8r	8r	8r	8r	8r	8r	8r	4r	4r
8ff	.	32c	32c	8dd	8b-	8B-	8B-	8dd	8g	.	.
.	.	32B-	32B-	.	.	.	.	.	.	.	.
.	.	32A	32A	.	.	.	.	.	.	.	.
.	.	32B-	32B-	.	.	.	.	.	.	.	.
=50	=50	=50	=50	=50	=50	=50	=50	=50	=50	=50	=50
8ff	8r	8A-	8A-	8bb-	8dd	8A-	8A-	8dd	8g	32r	8r
.	.	.	.	.	.	.	.	.	.	32b-	.
.	.	.	.	.	.	.	.	.	.	32cc	.
.	.	.	.	.	.	.	.	.	.	32dd	.
8r	8d	8F	8F	8r	8r	8r	8r	8r	8r	32ee-	8b-
.	.	.	.	.	.	.	.	.	.	32ff	.
.	.	.	.	.	.	.	.	.	.	32gg	.
.	.	.	.	.	.	.	.	.	.	32aa-	.
8b-	8f	8D	8D	8bb-	8ff	8D	8D	8dd	8g	16bb-	8b-
.	.	.	.	.	.	.	.	.	.	16bb-	.
8gg	4e-	8E-	8E-	8gg	8b-	8E-	8E-	8ee	8cc	8aa-	[4.b-
8r	.	8e-	8e-	8r	8r	8r	8r	8r	8r	32gg	.
.	.	.	.	.	.	.	.	.	.	32bb-	.
.	.	.	.	.	.	.	.	.	.	32aa-	.
.	.	.	.	.	.	.	.	.	.	32gg	.
8bb-	8f	8d	8d	8ff	8b-	8d	8d	8dd	8g	32ff	.
.	.	.	.	.	.	.	.	.	.	32aa-	.
.	.	.	.	.	.	.	.	.	.	32gg	.
.	.	.	.	.	.	.	.	.	.	32ff	.
=51	=51	=51	=51	=51	=51	=51	=51	=51	=51	=51	=51
8eee-	8g	8c	8c	8ee-	8b-	8c	8c	8ee	8cc	32ee-	8b-]
.	.	.	.	.	.	.	.	.	.	32ff	.
.	.	.	.	.	.	.	.	.	.	32gg	.
.	.	.	.	.	.	.	.	.	.	32ff	.
8r	8e-	8F	8F	8r	8r	8r	8F	8r	8r	32ee-	8a
.	.	.	.	.	.	.	.	.	.	32ff	.
.	.	.	.	.	.	.	.	.	.	32dd	.
.	.	.	.	.	.	.	.	.	.	32ee-	.
8ccc	8A	8A	8A	8ee-	8cc	8A	8A	[8dd	4dd	32cc	8cc
.	.	.	.	.	.	.	.	.	.	32dd	.
.	.	.	.	.	.	.	.	.	.	32ee-	.
.	.	.	.	.	.	.	.	.	.	32ff	.
8bb-	8B-	4B-	4B-	8dd	8f	8B-	8B-	8dd]	.	8ee-	8f
8r	8r	.	.	8r	8r	8r	4r	8r	8r	8dd	8r
[8bb-	8g	8g	8r	[8bb-	8ee-	8g	.	[8gg	8gg	32ee-	8b-
.	.	.	.	.	.	.	.	.	.	32bb-	.
.	.	.	.	.	.	.	.	.	.	32gg	.
.	.	.	.	.	.	.	.	.	.	32ee-	.
=52	=52	=52	=52	=52	=52	=52	=52	=52	=52	=52	=52
8bb-]	8f	8f	4r	8bb-]	8dd	8f	2.r	8gg]	8g	16dd	8a-
.	.	.	.	.	.	.	.	.	.	16b-	.
8r	8r	8r	.	8r	8r	8r	.	8r	8r	16b-	8r
.	.	.	.	.	.	.	.	.	.	16b-	.
8bb-	32e-	32E-	32E-	8bb-	8gg	8e-	.	8gg	8g	16b-	32g
.	32g	32G	32G	.	.	.	.	.	.	.	32b-
.	32f	32F	32F	.	.	.	.	.	.	16b-	32a-
.	32e-	32E-	32E-	.	.	.	.	.	.	.	32g
8bb-	16d	16D	16D	8bb-	8ff	8d	.	8gg	8g	32b-	16f
.	.	.	.	.	.	.	.	.	.	32cc	.
.	16B-	16BB-	16BB-	.	.	.	.	.	.	32dd	16d
.	.	.	.	.	.	.	.	.	.	32ee-	.
8r	16B-	16BB-	16BB-	8r	8r	8r	.	8r	8r	32ff	16d
.	.	.	.	.	.	.	.	.	.	32gg	.
.	16B-	16BB-	16BB-	.	.	.	.	.	.	32aa-	16d
.	.	.	.	.	.	.	.	.	.	32bb-	.
[8bb-	8g	8g	8r	[8bb-	8ee-	8g	.	[8gg	[8g	32aa-	8b-
.	.	.	.	.	.	.	.	.	.	32gg	.
.	.	.	.	.	.	.	.	.	.	32ff	.
.	.	.	.	.	.	.	.	.	.	32ee-	.
=53	=53	=53	=53	=53	=53	=53	=53	=53	=53	=53	=53
8bb-]	8f	8f	4r	8bb-]	8dd	8f	2.r	8gg]	8g]	32dd	8a-
.	.	.	.	.	.	.	.	.	.	32ee-	.
.	.	.	.	.	.	.	.	.	.	32ff	.
.	.	.	.	.	.	.	.	.	.	32dd	.
8r	8r	8r	.	8r	8r	8r	.	8r	8r	16b-	8r
.	.	.	.	.	.	.	.	.	.	16b-	.
8bb-	32e-	32E-	32E-	8bb-	8gg	8e-	.	8gg	8g	16b-	32g
.	32g	32G	32G	.	.	.	.	.	.	.	32b-
.	32f	32F	32F	.	.	.	.	.	.	16b-	32a-
.	32e-	32E-	32E-	.	.	.	.	.	.	.	32g
8bb-	32d	32D	32D	8bb-	8ff	8d	.	8gg	8g	32b-	32f
.	32e-	32E-	32E-	.	.	.	.	.	.	32cc	32g
.	32d	32D	32D	.	.	.	.	.	.	32dd	32f
.	32c	32C	32C	.	.	.	.	.	.	32ee-	32e-
8r	16B-	16BB-	16BB-	8r	8r	8r	.	8r	8r	32ff	16d
.	.	.	.	.	.	.	.	.	.	32gg	.
.	16B-	16BB-	16BB-	.	.	.	.	.	.	32aa-	16d
.	.	.	.	.	.	.	.	.	.	32bb-	.
8ff	[8B-	8A-	8A-	8ccc	8dd	8A-	.	8dd	8g	16ccc	8dd 8f
.	.	.	.	.	.	.	.	.	.	16ccc	.
=54	=54	=54	=54	=54	=54	=54	=54	=54	=54	=54	=54
8gg	8B-]	8G	8G	8bb-	8ee-	8G	2.r	8ee	8cc	32ccc	8e- 8ee-
.	.	.	.	.	.	.	.	.	.	32bb-	.
.	.	.	.	.	.	.	.	.	.	32aa	.
.	.	.	.	.	.	.	.	.	.	32bb-	.
8r	8r	8r	8r	8r	8r	8r	.	8r	8r	32aa	8r
.	.	.	.	.	.	.	.	.	.	32bb-	.
.	.	.	.	.	.	.	.	.	.	32aa	.
.	.	.	.	.	.	.	.	.	.	32bb-	.
4eee-	8B-	8D-	8D-	8gg	4ee-	8d-	.	4cc	4cc	16eee-	8G 8e-
.	.	.	.	.	.	.	.	.	.	16G	.
.	8c	8C	8C	8aa-	.	8c	.	.	.	32A-	8A- 8e-
.	.	.	.	.	.	.	.	.	.	32c	.
.	.	.	.	.	.	.	.	.	.	32e-	.
.	.	.	.	.	.	.	.	.	.	32a-	.
8r	4r	4r	4r	8r	8r	4r	.	4r	4r	16cc	4r
.	.	.	.	.	.	.	.	.	.	32ee-	.
.	.	.	.	.	.	.	.	.	.	32cc	.
8aa-	.	.	.	8aa-	8ff	.	.	.	.	32b-	.
.	.	.	.	.	.	.	.	.	.	32a-	.
.	.	.	.	.	.	.	.	.	.	32g	.
.	.	.	.	.	.	.	.	.	.	32f	.
=55	=55	=55	=55	=55	=55	=55	=55	=55	=55	=55	=55
8gg	8B-	8BB-	8BB-	8gg	8ee-	8B-	2.r	8ee	8cc	32e-	8e- 8G
.	.	.	.	.	.	.	.	.	.	32d	.
.	.	.	.	.	.	.	.	.	.	32f	.
.	.	.	.	.	.	.	.	.	.	32e-	.
8r	8r	8r	8r	8r	8r	8r	.	8r	8r	32g	8r
.	.	.	.	.	.	.	.	.	.	32f	.
.	.	.	.	.	.	.	.	.	.	32a-	.
.	.	.	.	.	.	.	.	.	.	32g	.
8bb-	8B-	8BB-	8BB-	8ff	8dd	8BB-	.	8dd	8g	16.b-	8A- 8d
.	.	.	.	.	.	.	.	.	.	32d	.
8gg	8e-	8E-	8E-	8ee-	8ee-	8E-	.	8cc	8e	8e-	8G 8e-
4r	4r	8EE-	8EE-	4r	4r	4r	.	4r	4r	8r	4r
.	.	8r	8r	.	.	.	.	.	.	8b-	.
=56	=56	=56	=56	=56	=56	=56	=56	=56	=56	=56	=56
2.r	4g	2.r	2.r	2.r	2.r	2.r	2.r	2.r	2.r	8ee-	4.b-
.	.	.	.	.	.	.	.	.	.	8ee-	.
.	8g-	.	.	.	.	.	.	.	.	32ff	.
.	.	.	.	.	.	.	.	.	.	32ee-	.
.	.	.	.	.	.	.	.	.	.	32dd	.
.	.	.	.	.	.	.	.	.	.	32ee-	.
.	4.f	.	.	.	.	.	.	.	.	8ff	8a
.	.	.	.	.	.	.	.	.	.	8dd	4a-
.	.	.	.	.	.	.	.	.	.	8b-	.
=57	=57	=57	=57	=57	=57	=57	=57	=57	=57	=57	=57
2.r	2e-	2.r	2.r	2.r	2.r	2.r	2.r	2.r	2.r	8ee-	8g
.	.	.	.	.	.	.	.	.	.	8cc	4.g-
.	.	.	.	.	.	.	.	.	.	8a	.
.	.	.	.	.	.	.	.	.	.	4b-	.
.	8d	.	.	.	.	.	.	.	.	.	8f
.	8r	.	.	.	.	.	.	.	.	8b	8r
=58	=58	=58	=58	=58	=58	=58	=58	=58	=58	=58	=58
2.r	8c	8E	8E	2.r	2.r	2.r	2.r	2.r	2.r	8cc	8g
.	8c	8F	8F	.	.	.	.	.	.	8a-	8a-
.	8r	8r	8r	.	.	.	.	.	.	8f	8r
.	8B-	8D	8D	.	.	.	.	.	.	4b-	8f
.	8B-	8E-	8E-	.	.	.	.	.	.	.	8g
.	8r	8r	8r	.	.	.	.	.	.	8g	8r
=59	=59	=59	=59	=59	=59	=59	=59	=59	=59	=59	=59
2.r	4c-	4C-	4C-	2.r	2.r	2.r	2.r	4.r	4.r	8a-	8e-
.	.	.	.	.	.	.	.	.	.	8f	16d
.	.	.	.	.	.	.	.	.	.	.	16f
.	8B-	8BB-	8BB-	.	.	.	.	.	.	8d	8A-
.	4B-	4E-	4E-	.	.	.	.	[4.c	[4.C	8e-	32G
.	.	.	.	.	.	.	.	.	.	.	32B-
.	.	.	.	.	.	.	.	.	.	.	32e-
.	.	.	.	.	.	.	.	.	.	.	32B-
.	.	.	.	.	.	.	.	.	.	8r	32G
.	.	.	.	.	.	.	.	.	.	.	32B-
.	.	.	.	.	.	.	.	.	.	.	32G
.	.	.	.	.	.	.	.	.	.	.	32B-
.	8r	8r	8r	.	.	.	.	.	.	32ff	32G
.	.	.	.	.	.	.	.	.	.	32ee-	32B-
.	.	.	.	.	.	.	.	.	.	32dd	32e-
.	.	.	.	.	.	.	.	.	.	32ee-	32B-
=60	=60	=60	=60	=60	=60	=60	=60	=60	=60	=60	=60
4r	2.r	4E-	4E-	2.r	2.r	2.r	2.r	2.c_	2.C_	8ff	32A-
.	.	.	.	.	.	.	.	.	.	.	32B-
.	.	.	.	.	.	.	.	.	.	.	32d
.	.	.	.	.	.	.	.	.	.	.	32B-
.	.	.	.	.	.	.	.	.	.	8dd	32A-
.	.	.	.	.	.	.	.	.	.	.	32B-
.	.	.	.	.	.	.	.	.	.	.	32A-
.	.	.	.	.	.	.	.	.	.	.	32B-
32ccc	.	8r	8r	.	.	.	.	.	.	8b-	32A-
32bb-	.	.	.	.	.	.	.	.	.	.	32B-
32aa	.	.	.	.	.	.	.	.	.	.	32d
32bb-	.	.	.	.	.	.	.	.	.	.	32A-
8gg	.	4E-	4E-	.	.	.	.	.	.	8ee-	32G
.	.	.	.	.	.	.	.	.	.	.	32B-
.	.	.	.	.	.	.	.	.	.	.	32e-
.	.	.	.	.	.	.	.	.	.	.	32B-
8ee-	.	.	.	.	.	.	.	.	.	8ee-	32G
.	.	.	.	.	.	.	.	.	.	.	32B-
.	.	.	.	.	.	.	.	.	.	.	32G
.	.	.	.	.	.	.	.	.	.	.	32B-
8r	.	8r	8r	.	.	.	.	.	.	32ff	32G
.	.	.	.	.	.	.	.	.	.	32ee-	32B-
.	.	.	.	.	.	.	.	.	.	32dd	32e-
.	.	.	.	.	.	.	.	.	.	32ee-	32B-
=61	=61	=61	=61	=61	=61	=61	=61	=61	=61	=61	=61
4r	4.r	4E-	4E-	2.r	2.r	4.r	4.r	2c]	2C]	8ff	32A-
.	.	.	.	.	.	.	.	.	.	.	32B-
.	.	.	.	.	.	.	.	.	.	.	32d
.	.	.	.	.	.	.	.	.	.	.	32B-
.	.	.	.	.	.	.	.	.	.	8dd	32A-
.	.	.	.	.	.	.	.	.	.	.	32B-
.	.	.	.	.	.	.	.	.	.	.	32A-
.	.	.	.	.	.	.	.	.	.	.	32B-
32ccc	.	8r	8r	.	.	.	.	.	.	8b-	32A-
32bb-	.	.	.	.	.	.	.	.	.	.	32B-
32aa	.	.	.	.	.	.	.	.	.	.	32d
32bb-	.	.	.	.	.	.	.	.	.	.	32A-
8gg	8G	4E-	4E-	.	.	8e-	8G	.	.	8ee-	8G
8ee-	8G	.	.	.	.	8e-	8G	4r	4r	16r	8e-
.	.	.	.	.	.	.	.	.	.	32ee-	.
.	.	.	.	.	.	.	.	.	.	32gg	.
8r	8r	8r	8r	.	.	8r	8r	.	.	32ff	8r
.	.	.	.	.	.	.	.	.	.	32ee-	.
.	.	.	.	.	.	.	.	.	.	32dd	.
.	.	.	.	.	.	.	.	.	.	32cc	.
=62	=62	=62	=62	=62	=62	=62	=62	=62	=62	=62	=62
2.r	8B-	4BB-	4BB-	2.r	2.r	8f	8d	2.r	2.r	8b-	8f
.	8B-	.	.	.	.	8f	8d	.	.	16r	8f
.	.	.	.	.	.	.	.	.	.	32a-	.
.	.	.	.	.	.	.	.	.	.	32cc	.
.	8r	8r	8r	.	.	8r	8r	.	.	32b-	8r
.	.	.	.	.	.	.	.	.	.	32a-	.
.	.	.	.	.	.	.	.	.	.	32g	.
.	.	.	.	.	.	.	.	.	.	32f	.
.	8e-	4E-	4E-	.	.	8g	8e-	.	.	8e-	8g
.	8e-	.	.	.	.	8g	8e-	.	.	16r	8g
.	.	.	.	.	.	.	.	.	.	32aa	.
.	.	.	.	.	.	.	.	.	.	32bb-	.
.	8r	8r	8r	.	.	8r	8r	.	.	32aa	8r
.	.	.	.	.	.	.	.	.	.	32bb-	.
.	.	.	.	.	.	.	.	.	.	32gg	.
.	.	.	.	.	.	.	.	.	.	32ee-	.
=63	=63	=63	=63	=63	=63	=63	=63	=63	=63	=63	=63
2.r	8f	4BB-	4BB-	2.r	2.r	8d	8A-	2.r	2.r	8dd	8a-
.	8f	.	.	.	.	8d	8A-	.	.	16r	8a-
.	.	.	.	.	.	.	.	.	.	32ee	.
.	.	.	.	.	.	.	.	.	.	32ff	.
.	8r	8r	8r	.	.	8r	8r	.	.	32ee	8r
.	.	.	.	.	.	.	.	.	.	32ff	.
.	.	.	.	.	.	.	.	.	.	32dd	.
.	.	.	.	.	.	.	.	.	.	32b-	.
.	8e-	4E-	4E-	.	.	8e-	8G	.	.	8ee-	8g
.	8e-	.	.	.	.	8e-	8G	.	.	4r	8g
.	8r	8r	8r	.	.	8r	8r	.	.	.	8r
=64	=64	=64	=64	=64	=64	=64	=64	=64	=64	=64	=64
2.r	2.r	2.r	2.r	2.r	2.r	2.r	2.r	8dd	8g	2.r	2.r
.	.	.	.	.	.	.	.	8dd	8g	.	.
.	.	.	.	.	.	.	.	8r	8r	.	.
.	.	.	.	.	.	.	.	8ee	8cc	.	.
.	.	.	.	.	.	.	.	8ee	8cc	.	.
.	.	.	.	.	.	.	.	8r	8r	.	.
=65	=65	=65	=65	=65	=65	=65	=65	=65	=65	=65	=65
4.r	4.r	4.r	4.r	8bb-	8dd	8f	8B-	4.r	4.r	4.r	4.r
.	.	.	.	8bb-	8dd	8f	8B-	.	.	.	.
.	.	.	.	8r	8r	8r	8r	.	.	.	.
8eee-	8G 8e-	8E-	8E-	8gg	8ee-	8e-	8E-	8cc	8e	8gg 8e- 8b-	8b- 8gg 8e-
8eee-	8G 8e-	8E-	8E-	8gg	8ee-	8e-	8E-	8cc	8e	8gg 8b- 8e-	8gg 8b- 8e-
8r	8r	8r	8r	8r	8r	8r	8r	8r	8r	8r	8r
==	==	==	==	==	==	==	==	==	==	==	==
*-	*-	*-	*-	*-	*-	*-	*-	*-	*-	*-	*-
!!!RWG1: This file contains only pitch and duration data.
!!!RWG2: Transposing instruments are not transposed.
!!!RWG3: Spines may have incompatible meters.
!!!RWG4: Durations of rests and tied notes may be interpreted.
!!!RWG: Key is interpreted using the Humdrum key tool.
!!!AFT: stage1
!!!END: 1997/04/15
!!format changes:
!!content changes:
!!public access: complete
!!!KEY: 2225523045
!!!EMD: Converted from MuseData to Humdrum Dec 16, 2000, by Andreas Kornstaedt using muse2kern.
